X:5070
T:Pengobilo - An Dro
O:england
C:Strakal
E:12
M:4/4
L:1/8
K:C
e2 eed3e|d2c2B2cd|e2eed2d2|dedcB4:|A2BcB2AA|
d2c2B2AA|:d2 dcB2AA|d2dcB2AA|d2dc B2B2|ABcBA4:|


